X:315
T: DICH SANFTER JUENGLING LIEBT MEIN HERZ
N: B0372
O: Europa, Mitteleuropa, Deutschland
R: Liebes - Lied, Liebes - Lust
M: 3/4
L: 1/8
K: Eb
 | B2B2B2 | B2g2e2 | edf2A2 | A2G2z2
B2B2B2 | B2cBAG | FGAG2z2
B2c2_d2 | _d2c2ec | B2c2_d2 | _d2c2z2
c2=d2e2 | e2d2fd | c2d2e2 | e2d2z2
f2edcB | e4cA | G4F2 | E2z4

